X:1
T:Title
%%score ( 1 2 ) ( 3 4 )
L:1/8
Q:1/4=105
M:4/4
K:G
V:1 treble nm="Choir Aahs, ChrchOrg"
V:2 treble 
V:3 bass nm="Choir Aahs, ChrchOrg-2"
V:4 bass 
V:1
 [DB]2 [Fd]2 [Ec]2 [DB]2 | [GB]2 [GA]2 [FA]2 [EG]2 | D2 D2- D/ z/ [DE] [^CF]2 | z2 B4 z2 | %4
w: By~J.~B.~Dykes,~1868 * * *||||
 z4 .B2 z2 | z4 .G2 z2 | E2 z2 z4 | [DG]2 B2 A2 [DG]2 |] %8
w: ||||
V:2
 x8 | x8 | x8 | [^CG]2 D2 G2 [FA]2 | [Gd]2 [Gc]2 F-[FA] [GB]2 | [EB]2 [EA]2 ^D-[DF] [EG]2 | %6
 B,C [CD]2- [CD]/ z/ [CE] [CF]2 | z2 F4 z2 |] %8
V:3
 [G,B,]2 [D,A,]2 [E,G,][F,A,] [G,B,]2 | D2 .C2 z4 | F,-[F,C] [G,C]2 [G,B,]2 [E,A,]2 | %3
 [E,G,]2 D,2- D,-[D,B,] [D,D]2 | [B,D]2 [A,E]2 [D,D]2 [G,D]2 | [G,B,]2 [F,C]2 [B,,B,]2 [E,B,]2 | %6
 G,-[C,G,] [D,F,]2- [D,F,]/ z/ [D,G,] [D,A,]2 | [D,B,]2 [D,C]4 [G,B,]2 |] %8
V:4
 x8 | B,,C,D,-[D,B,] [D,C]2 [E,B,]2 | .A,2 z2 z4 | z2 G,4 z2 | x8 | x8 | .E,2 z2 z4 | x8 |] %8

